frontend/public/svg/weather/wind.svg

<svg width="152" height="118" viewBox="0 0 152 118" fill="none" xmlns="http://www.w3.org/2000/svg">
<g clip-path="url(#clip0)">
<path d="M59.3906 49.5889C42.8956 50.1081 26.4012 50.6496 9.90284 51.115C8.01009 51.1227 6.12102 50.9434 4.26339 50.5805C3.95138 50.546 3.65004 50.447 3.37855 50.2894C3.10706 50.1319 2.87133 49.919 2.68664 49.6652C2.50194 49.4113 2.37234 49.1221 2.30591 48.8152C2.23948 48.5085 2.23794 48.1915 2.30111 47.884C2.46585 46.423 3.47047 45.7524 4.82647 45.6291C7.28445 45.4052 9.74899 45.1952 12.2109 45.0843C23.985 44.5553 35.7578 43.9581 47.5371 43.5748C64.8218 43.0176 82.1195 42.8143 99.3963 42.0917C109.806 41.6558 120.282 41.2052 130.385 38.1979C132.754 37.5216 135.045 36.6003 137.222 35.4481C140.56 33.6261 142.4 30.6755 143.022 26.8497C145.116 13.9684 130.814 5.23826 121.77 9.33055C117.929 11.0679 114.179 12.69 112.109 16.7009C110.085 20.6205 110.792 23.7785 114.406 26.369C116.807 28.0899 117.408 29.3458 116.612 30.9775C115.738 32.7673 113.569 33.3723 111.004 32.5408C104.655 30.4825 101.517 23.631 103.754 16.5971C104.938 12.8107 107.284 9.4924 110.458 7.11154C115.102 3.59882 120.343 1.35223 126.249 1.06541C136.418 0.571845 143.853 5.45533 148.704 13.8499C155.446 25.5163 150.067 39.2151 137.376 43.8363C130.805 46.1755 123.918 47.5107 116.949 47.798C102.936 48.4813 88.9041 48.7889 74.8781 49.2569C69.7147 49.4293 64.5531 49.6099 59.3925 49.7985L59.3906 49.5889Z" fill="black"/>
<path d="M42.6298 80.7719C29.1702 80.7719 17.1677 80.7811 5.16463 80.7646C2.44411 80.7607 1.23906 80.1306 1.07695 78.7779C0.898422 77.2861 2.22291 76.2372 5.01497 76.0475C12.9567 75.508 20.9069 74.8241 28.863 74.6509C44.1215 74.3187 59.3868 74.2013 74.6493 74.1914C82.7827 74.1862 90.7585 75.4746 98.267 78.7858C104.358 81.4735 108.402 86.0055 108.809 92.8124C109.312 101.217 106.139 108.179 99.2305 113.198C92.8319 117.847 85.8497 119.278 78.2454 116.588C67.2412 112.694 67.5989 100.901 72.8634 95.2441C74.3986 93.6203 76.1687 92.2355 78.1141 91.1361C80.0497 90.0328 82.3541 90.5907 83.3648 91.8909C84.3316 93.1379 84.2666 95.0905 82.9658 96.9014C82.0554 98.0375 81.0768 99.1178 80.0352 100.135C76.8336 103.601 77.7584 107.21 82.1907 108.602C90.9501 111.353 102.275 103.558 100.675 92.0943C100.256 89.085 98.0891 87.2046 95.4073 85.9766C89.688 83.325 83.4974 81.8397 77.1972 81.6087C65.1946 81.1939 53.185 81.0134 42.6298 80.7719Z" fill="black"/>
<path d="M45.0375 102.859C48.6342 103.008 50.9525 105.014 50.8994 107.931C50.8423 111.114 48.2778 113.445 44.9304 113.356C41.6324 113.27 39.521 111.026 39.6608 107.756C39.8046 104.4 41.6534 102.718 45.0375 102.859Z" fill="black"/>
<path d="M84.5544 13.539C85.7995 13.5151 87.0032 13.9817 87.907 14.8382C88.8108 15.6947 89.3417 16.8723 89.3844 18.1167C89.5813 21.3485 87.1017 24.2315 84.0838 24.2814C82.7239 24.2942 81.4132 23.7737 80.4326 22.8315C79.4514 21.8894 78.879 20.6002 78.837 19.2409C78.6244 16.1226 81.0784 13.6768 84.5544 13.539Z" fill="black"/>
<path d="M138.045 67.0869C138.268 64.307 141.58 61.6091 144.373 61.9327C145.592 62.1228 146.696 62.7598 147.472 63.7191C148.248 64.6783 148.639 65.8914 148.57 67.123C148.27 69.8252 145.269 72.0055 142.164 71.7784C141.577 71.7653 140.999 71.6308 140.467 71.3827C139.935 71.1346 139.46 70.7788 139.073 70.3378C138.686 69.8967 138.395 69.3795 138.218 68.8197C138.04 68.2598 137.982 67.6704 138.045 67.0869Z" fill="black"/>
</g>
<defs>
<clipPath id="clip0">
<rect width="150.958" height="117.484" fill="white" transform="translate(0.923828 0.501953)"/>
</clipPath>
</defs>
</svg>

<svg xmlns="http://www.w3.org/2000/svg" width="152" height="118" fill="none" viewBox="0 0 152 118"><g fill="#000" clip-path="url(#a)"><path d="M59.39 49.589c-16.494.52-32.989 1.06-49.487 1.526a29 29 0 0 1-5.64-.535 2.256 2.256 0 0 1-1.962-2.696c.165-1.461 1.17-2.132 2.525-2.255 2.458-.224 4.923-.434 7.385-.545 11.774-.529 23.547-1.126 35.326-1.51 17.285-.556 34.583-.76 51.86-1.482 10.409-.436 20.885-.887 30.988-3.894a35.4 35.4 0 0 0 6.837-2.75c3.338-1.822 5.178-4.773 5.8-8.598 2.094-12.882-12.208-21.612-21.252-17.52-3.841 1.738-7.591 3.36-9.661 7.37-2.024 3.92-1.317 7.079 2.297 9.669 2.401 1.72 3.002 2.977 2.206 4.608-.874 1.79-3.043 2.395-5.608 1.564-6.349-2.058-9.487-8.91-7.25-15.944a18.9 18.9 0 0 1 6.704-9.485c4.644-3.513 9.885-5.76 15.791-6.047 10.169-.493 17.604 4.39 22.455 12.785 6.742 11.666 1.363 25.365-11.328 29.986a69.4 69.4 0 0 1-20.427 3.962c-14.013.683-28.045.99-42.07 1.459q-7.746.258-15.487.541zM42.63 80.772c-13.46 0-25.462.01-37.465-.007-2.72-.004-3.926-.634-4.088-1.987-.179-1.492 1.146-2.54 3.938-2.73 7.942-.54 15.892-1.224 23.848-1.397 15.258-.332 30.524-.45 45.786-.46 8.134-.005 16.11 1.284 23.618 4.595 6.091 2.688 10.135 7.22 10.542 14.026.503 8.405-2.67 15.367-9.578 20.386-6.4 4.649-13.381 6.08-20.986 3.39-11.004-3.894-10.646-15.687-5.382-21.344a22.4 22.4 0 0 1 5.251-4.108c1.936-1.103 4.24-.545 5.25.755.968 1.247.903 3.2-.398 5.01a36 36 0 0 1-2.93 3.234c-3.202 3.466-2.278 7.075 2.155 8.467 8.76 2.751 20.084-5.044 18.484-16.508-.419-3.009-2.586-4.89-5.268-6.117a47.4 47.4 0 0 0-18.21-4.368c-12.002-.415-24.012-.596-34.567-.837m2.408 22.087c3.596.149 5.915 2.155 5.861 5.072-.057 3.183-2.621 5.514-5.969 5.425-3.298-.086-5.409-2.33-5.27-5.6.145-3.356 1.993-5.038 5.378-4.897"/><path d="M84.554 13.539a4.74 4.74 0 0 1 4.83 4.578c.197 3.232-2.282 6.115-5.3 6.164a5.2 5.2 0 0 1-5.247-5.04c-.213-3.118 2.241-5.564 5.717-5.702m53.491 53.548c.223-2.78 3.535-5.478 6.328-5.154a4.97 4.97 0 0 1 4.197 5.19c-.3 2.702-3.301 4.882-6.406 4.655a4.24 4.24 0 0 1-4.119-4.691"/></g><defs><clipPath id="a"><path fill="#fff" d="M.924.502h150.958v117.484H.924z"/></clipPath></defs></svg>
